X: 5
T: The Boyne Hunt
R: reel
M: 4/4
L: 1/8
K: Dmaj
A2FA DAFA|DAFA BGEG|A2FA DAFA|A2de fedB|A2FA DAFA|DAFA BGEG|A2FA DAFA|A2de fed2||faaf aaaf|ggga bgeg|faaf aaaf|dcde fdd2|faaf aaaf|ggga bgeg|fffe dcdB|ABde fedB||


Tune 142	Setting 142

